X: 3546
T: Big John's
R: reel
M: 4/4
K: Dmajor
|:D2FA d2AF|GEBE GEBE|D2FA d2eg|1 faeg fddB:|2 faeg fddf||
a3a afdf|gebe gebe|a2fa gfed|cdeg fddf|
a2fa afdf|gebe gebe|fgaf bged|ceag fdAF||

